icons/outline/file-type-html.svg

<!--
tags: [web, markup, internet, browser, code, site, html, hypertext, format, front-end]
category: Document
version: "2.25"
unicode: "fb0c"
-->
<svg
  xmlns="http://www.w3.org/2000/svg"
  width="24"
  height="24"
  viewBox="0 0 24 24"
  fill="none"
  stroke="currentColor"
  stroke-width="2"
  stroke-linecap="round"
  stroke-linejoin="round"
>
  <path d="M14 3v4a1 1 0 0 0 1 1h4m-14 4v-7a2 2 0 0 1 2 -2h7l5 5v4m-17 9v-6m3 0v6m-3 -3h3m15 -3v6h2m-9 0v-6l2 3l2 -3v6m-9.5 -6h3m-1.5 0v6" />
</svg>

<!--
tags: [web, markup, internet, browser, code, site, html, hypertext, format, front-end]
category: Document
version: "2.25"
unicode: "fb0c"
-->
<svg
  xmlns="http://www.w3.org/2000/svg"
  width="24"
  height="24"
  viewBox="0 0 24 24"
  fill="none"
  stroke="currentColor"
  stroke-width="2"
  stroke-linecap="round"
  stroke-linejoin="round"
>
    <path d="M14 3v4a1 1 0 0 0 1 1h4M5 12v-7a2 2 0 0 1 2 -2h7l5 5v4M2 21v-6M5 15v6M2 18h3M20 15v6h2M13 21v-6l2 3l2 -3v6M7.5 15h3M9 15v6" />
</svg>
